X: 239
T: Speed The Plough
R: reel
M: 4/4
L: 1/8
K:Dmaj
"D"d3A "Bm"BAFB|"D"AF~F2 EFDE|F2AF "G"G2BG|"D"ABde fgfe|
"D"d3A "Bm"BAFB|"D"AF~F2 EFDE|F2AF "G"G2BG|1"D"ABde fedc:|2ABde fdde||
|:"D"fa~a2 afdf|"G"ge"D"fd "G"edBd|"D"faab afdB|ABde fdde|
"D"faaf afdf|"G"ge"D"fd "G"edBA|"D"F2AF "G"G2BG|1"D"ABde fdde:|2ABde fgfe||
P:Variation
dedA BAFB|AF~F2 EFDE|F2AF ~G3B|ABde fgfe|
dA~A2 BAFB|AF~F2 EFDE|F2AF GABG|1ABde fedc:|2ABde fdde||
|:faaf afdf|g2fg edBd|faaf ~a3f|ABde fe~e2|
faab afdf|gefd edBA|F2AF G2BG|1ABde fdde:||2ABde fdef||


